X: 417
T: The humors of Ballymanus
C:anon.
O:Ireland
B:Francis O'Neill: "The Dance Music of Ireland" (1907) no. 417
R:Hop, slip jig
Z:Transcribed by Frank Nordberg - http://www.musicaviva.com
F:http://www.musicaviva.com/abc/tunes/ireland/oneill-1001/oneill-1001-041
7.abc
M:9/8
L:1/8
K:D
A2A AGF AGF|A2A AGF Bcd|A2A AGF AGF|B2B B2A Bcd::dfg afd cBA|
dfg afd fga|dfg agd cBA|B2B B2A Bcd::FAF dAF dAG|FAF dAF Bcd|FAF dAF dAF|
B2B B2A Bcd:|
W:
W:
W:  From Musica Viva - http://www.musicaviva.com
W:  the Internet center for free sheet music downloads.


